images/Smiley.svg

<svg height="384" viewBox="0 0 383 384" width="383" xmlns="http://www.w3.org/2000/svg" xmlns:xlink="http://www.w3.org/1999/xlink"><linearGradient id="a" x1="-8.84842%" x2="68.953421%" y1="100%" y2="51.657477%"><stop offset="0" stop-color="#191919" stop-opacity=".05"/><stop offset="1" stop-color="#191919"/></linearGradient><path d="m313.5 106.5c105.594841 0 191.5 85.905159 191.5 191.5s-85.905159 191.5-191.5 191.5-191.5-85.905159-191.5-191.5 85.905159-191.5 191.5-191.5zm0 17.409091c-95.993727 0-174.090909 78.097182-174.090909 174.090909s78.097182 174.090909 174.090909 174.090909 174.090909-78.097182 174.090909-174.090909-78.097182-174.090909-174.090909-174.090909zm-82.951392 224.208846c8.296115 23.094883 24.564947 40.970842 45.796928 50.337355 20.763386 9.152247 44.232744 8.838499 64.369136-.887676 3.372565-1.629957 7.233525.221919 8.632711 4.116981 1.405786 3.902714-.184798 8.387008-3.550763 10.009313-12.005277 5.800504-25.020342 8.708408-38.088208 8.708408-12.229673 0-24.505547-2.54059-36.055428-7.637075-24.650745-10.874032-43.57935-31.742072-53.28125-58.754973-1.405786-3.902714.178198-8.387009 3.544163-10.009313 3.379165-1.645262 7.233526.221919 8.632711 4.11698zm30.632391-131.117937c12.311536 0 22.524444 10.939407 23.844649 25.495488.193049 1.402664.423462 4.806188-.703694 9.887408-1.700076 7.680275-5.59219 14.638591-11.265336 20.118608l-24.006561 22.834551c-1.170748 1.107005-2.621728 1.663945-4.066481 1.663945-1.463435 0-2.933097-.570692-4.103845-1.7052l-23.570645-22.807048c-5.666918-5.466265-9.559032-12.424581-11.259108-20.104856-1.127156-5.08122-.896743-8.484744-.703694-9.887408 1.320205-14.556081 11.533113-25.495488 23.844649-25.495488 6.053016 0 11.626524 2.516545 15.861144 6.917061 4.321804-4.366137 10.038541-6.917061 16.128922-6.917061zm136.628068 0c12.311536 0 22.518217 10.939407 23.844649 25.488612.193049 1.402664.423462 4.813064-.703694 9.90116-1.700076 7.673399-5.59219 14.631715-11.265336 20.111732l-24.006561 22.834551c-1.170748 1.107005-2.621728 1.663945-4.066481 1.663945-1.463435 0-2.933097-.570692-4.103845-1.7052l-23.570645-22.807048c-5.666918-5.466265-9.559032-12.424581-11.259108-20.104856-1.127156-5.08122-.896743-8.484744-.703694-9.887408 1.320205-14.549205 11.533113-25.495488 23.844649-25.495488 6.059244 0 11.626524 2.516545 15.861144 6.917061 4.321804-4.366137 10.038542-6.917061 16.128922-6.917061z" fill="url(#a)" transform="translate(-122 -106)"/></svg>

<?xml version="1.0" encoding="UTF-8"?>
<svg width="383px" height="384px" viewBox="0 0 383 384" version="1.1" xmlns="http://www.w3.org/2000/svg" xmlns:xlink="http://www.w3.org/1999/xlink">
    <title>Combined Shape</title>
    <defs>
        <linearGradient x1="-8.84841953%" y1="100%" x2="68.9534207%" y2="51.6574774%" id="linearGradient-1">
            <stop stop-color="#191919" stop-opacity="0.05" offset="0%"></stop>
            <stop stop-color="#191919" offset="100%"></stop>
        </linearGradient>
    </defs>
    <g id="✅-Editor" stroke="none" stroke-width="1" fill="none" fill-rule="evenodd">
        <g id="Artboard" transform="translate(-122.000000, -106.000000)" fill="url(#linearGradient-1)" fill-rule="nonzero">
            <path d="M313.5,106.5 C419.094841,106.5 505,192.405159 505,298 C505,403.594841 419.094841,489.5 313.5,489.5 C207.905159,489.5 122,403.594841 122,298 C122,192.405159 207.905159,106.5 313.5,106.5 Z M313.5,123.909091 C217.506273,123.909091 139.409091,202.006273 139.409091,298 C139.409091,393.993727 217.506273,472.090909 313.5,472.090909 C409.493727,472.090909 487.590909,393.993727 487.590909,298 C487.590909,202.006273 409.493727,123.909091 313.5,123.909091 Z M230.548608,348.117937 C238.844723,371.21282 255.113555,389.088779 276.345536,398.455292 C297.108922,407.607539 320.57828,407.293791 340.714672,397.567616 C344.087237,395.937659 347.948197,397.789535 349.347383,401.684597 C350.753169,405.587311 349.162585,410.071605 345.79662,411.69391 C333.791343,417.494414 320.776278,420.402318 307.708412,420.402318 C295.478739,420.402318 283.202865,417.861728 271.652984,412.765243 C247.002239,401.891211 228.073634,381.023171 218.371734,354.01027 C216.965948,350.107556 218.549932,345.623261 221.915897,344.000957 C225.295062,342.355695 229.149423,344.222876 230.548608,348.117937 Z M261.180999,217 C273.492535,217 283.705443,227.939407 285.025648,242.495488 C285.218697,243.898152 285.44911,247.301676 284.321954,252.382896 C282.621878,260.063171 278.729764,267.021487 273.056618,272.501504 L273.056618,272.501504 L249.050057,295.336055 C247.879309,296.44306 246.428329,297 244.983576,297 C243.520141,297 242.050479,296.429308 240.879731,295.2948 L240.879731,295.2948 L217.309086,272.487752 C211.642168,267.021487 207.750054,260.063171 206.049978,252.382896 C204.922822,247.301676 205.153235,243.898152 205.346284,242.495488 C206.666489,227.939407 216.879397,217 229.190933,217 C235.243949,217 240.817457,219.516545 245.052077,223.917061 C249.373881,219.550924 255.090618,217 261.180999,217 Z M397.809067,217 C410.120603,217 420.327284,227.939407 421.653716,242.488612 C421.846765,243.891276 422.077178,247.301676 420.950022,252.389772 C419.249946,260.063171 415.357832,267.021487 409.684686,272.501504 L409.684686,272.501504 L385.678125,295.336055 C384.507377,296.44306 383.056397,297 381.611644,297 C380.148209,297 378.678547,296.429308 377.507799,295.2948 L377.507799,295.2948 L353.937154,272.487752 C348.270236,267.021487 344.378122,260.063171 342.678046,252.382896 C341.55089,247.301676 341.781303,243.898152 341.974352,242.495488 C343.294557,227.946283 353.507465,217 365.819001,217 C371.878245,217 377.445525,219.516545 381.680145,223.917061 C386.001949,219.550924 391.718687,217 397.809067,217 Z" id="Combined-Shape"></path>
        </g>
    </g>
</svg>
